src/images_karasa_jaga_svg/cmd/sc_showrow.svg

<svg height="16" width="16" xmlns="http://www.w3.org/2000/svg" xmlns:xlink="http://www.w3.org/1999/xlink"><linearGradient id="a" gradientTransform="matrix(.30769997 0 0 1.3043803 -149.43764 -39.470642)" gradientUnits="userSpaceOnUse" x1="127.0339" x2="7.050848" y1="44.542374" y2="44.542374"><stop offset="0" stop-color="#fdfaeb"/><stop offset="1" stop-color="#ffe1a5"/></linearGradient><linearGradient id="b" gradientTransform="matrix(1.0769499 0 0 1.5652564 2.256411 -29.222398)" gradientUnits="userSpaceOnUse" x1="46.048" x2="46.048" y1="110.69923" y2="16.6203"><stop offset="0" stop-color="#c7cdd7"/><stop offset="1" stop-color="#fff"/></linearGradient><linearGradient id="c" gradientUnits="userSpaceOnUse" x1="67.266975" x2="67.266975" y1="144.02724" y2="-112.02084"><stop offset="0"/><stop offset="1" stop-color="#fff"/></linearGradient><linearGradient id="d" gradientUnits="userSpaceOnUse" x1="79.999992" x2="128.00005" y1="56" y2="56"><stop offset="0" stop-color="#fff"/><stop offset="1" stop-color="#fff" stop-opacity="0"/></linearGradient><mask id="e" maskUnits="userSpaceOnUse"><path d="m0 0h128.00005v112h-128.00005z" fill="url(#d)"/></mask><g mask="url(#e)" transform="matrix(.125 0 0 .125 0 1.996411)"><path d="m0 0h127.99999v88h-127.99999z" fill="url(#b)"/><path d="m0 0v4 20 4 28 4 20 4 2.3125 1.6875h128v-64-24h-120zm5 8h30v16h-30zm35 0h27v16h-27zm32 0h56v16h-56zm-67 24h30v24h-30zm35 0h27v24h-27zm32 0h56v24h-56zm-67 32h30v16h-30zm35 0h27v16h-27zm32 0h56v16h-56zm-67 24h30zm35 0h27zm32 0h56z" fill="url(#c)"/><path d="m5 32h123v23.999998h-123z" fill="url(#a)"/><path d="m0 24v4 28 4 4h5 30 5 27 5 56v-8h-56v-24h56v-8h-56-5-27-5-30zm5 8h30v24h-30zm35 0h27v24h-27z" fill="#bf5e00"/></g></svg>

<?xml version="1.0" encoding="UTF-8" standalone="no"?>
<svg
   xmlns:dc="http://purl.org/dc/elements/1.1/"
   xmlns:cc="http://creativecommons.org/ns#"
   xmlns:rdf="http://www.w3.org/1999/02/22-rdf-syntax-ns#"
   xmlns:svg="http://www.w3.org/2000/svg"
   xmlns="http://www.w3.org/2000/svg"
   xmlns:xlink="http://www.w3.org/1999/xlink"
   xmlns:sodipodi="http://sodipodi.sourceforge.net/DTD/sodipodi-0.dtd"
   xmlns:inkscape="http://www.inkscape.org/namespaces/inkscape"
   height="128"
   width="128"
   version="1.1"
   id="svg56"
   sodipodi:docname="sc_showrow.svg"
   inkscape:version="0.92.3 (unknown)"
   inkscape:export-filename="/home/rizmut/Dokumen/Rizmut/Github/libreoffice-style-karasa-jaga/build/images_karasa_jaga/cmd/sc_showrow.png"
   inkscape:export-xdpi="12"
   inkscape:export-ydpi="12">
  <metadata
     id="metadata62">
    <rdf:RDF>
      <cc:Work
         rdf:about="">
        <dc:format>image/svg+xml</dc:format>
        <dc:type
           rdf:resource="http://purl.org/dc/dcmitype/StillImage" />
        <dc:title></dc:title>
      </cc:Work>
    </rdf:RDF>
  </metadata>
  <defs
     id="defs60">
    <linearGradient
       y2="117.3336"
       y1="101.334"
       x2="53.332001"
       x1="53.332001"
       gradientUnits="userSpaceOnUse"
       gradientTransform="matrix(1.5000376,0,0,1,11.999997,-13.334003)"
       id="linearGradient964"
       spreadMethod="pad">
      <stop
         id="stop960"
         stop-opacity=".988235"
         stop-color="#58a11e"
         offset="0"
         style="stop-color:#a1691e;stop-opacity:0.988235" />
      <stop
         id="stop962"
         stop-opacity="0"
         stop-color="#59a220"
         offset="1"
         style="stop-color:#a26d20;stop-opacity:0" />
    </linearGradient>
    <linearGradient
       id="k"
       gradientTransform="matrix(0.3077,0,0,1.3091052,-151.07866,-67.775515)"
       gradientUnits="userSpaceOnUse"
       x1="114.6638"
       x2="114.6638"
       y1="101.334"
       y2="112.0004">
      <stop
         offset="0"
         stop-color="#ddfec8"
         id="stop42"
         style="stop-color:#feeec8;stop-opacity:1" />
      <stop
         offset="1"
         stop-color="#dffecb"
         stop-opacity="0"
         id="stop44"
         style="stop-color:#feeec9;stop-opacity:0" />
    </linearGradient>
    <linearGradient
       id="j"
       gradientTransform="matrix(0.30769997,0,0,1.3043803,-149.43764,-39.470642)"
       gradientUnits="userSpaceOnUse"
       x1="46.048"
       x2="46.048"
       y1="128.01709"
       y2="16.6203">
      <stop
         offset="0"
         stop-color="#f2fdeb"
         id="stop37"
         style="stop-color:#fdfaeb;stop-opacity:1" />
      <stop
         offset="1"
         stop-color="#c8ffa5"
         id="stop39"
         style="stop-color:#ffe1a5;stop-opacity:1" />
    </linearGradient>
    <linearGradient
       inkscape:collect="always"
       xlink:href="#j"
       id="linearGradient907"
       x1="127.0339"
       y1="44.542374"
       x2="7.0508475"
       y2="44.542374"
       gradientUnits="userSpaceOnUse" />
  </defs>
  <sodipodi:namedview
     pagecolor="#ffffff"
     bordercolor="#666666"
     borderopacity="1"
     objecttolerance="10"
     gridtolerance="10"
     guidetolerance="10"
     inkscape:pageopacity="0"
     inkscape:pageshadow="2"
     inkscape:window-width="1366"
     inkscape:window-height="706"
     id="namedview58"
     showgrid="false"
     inkscape:zoom="1.84375"
     inkscape:cx="-11.661017"
     inkscape:cy="59.661017"
     inkscape:window-x="0"
     inkscape:window-y="0"
     inkscape:window-maximized="1"
     inkscape:current-layer="svg56" />
  <linearGradient
     id="a"
     gradientTransform="matrix(1.0769499,0,0,1.5652564,2.256411,-29.222398)"
     gradientUnits="userSpaceOnUse"
     x1="46.048"
     x2="46.048"
     y1="110.69923"
     y2="16.6203">
    <stop
       offset="0"
       stop-color="#c7cdd7"
       id="stop2" />
    <stop
       offset="1"
       stop-color="#fff"
       id="stop4" />
  </linearGradient>
  <linearGradient
     id="b"
     gradientUnits="userSpaceOnUse"
     x1="67.266975"
     x2="67.266975"
     y1="144.02724"
     y2="-112.020844">
    <stop
       offset="0"
       id="stop7" />
    <stop
       offset="1"
       stop-color="#fff"
       id="stop9" />
  </linearGradient>
  <filter
     id="c"
     color-interpolation-filters="sRGB"
     height="1.306617"
     width="1.43589"
     x="-.217945"
     y="-.153309">
    <feGaussianBlur
       stdDeviation="3.1542391"
       id="feGaussianBlur12" />
  </filter>
  <linearGradient
     id="d"
     gradientUnits="userSpaceOnUse"
     x1="32.81356"
     x2="28.745761"
     y1="44.474576"
     y2="19.254237">
    <stop
       offset="0"
       stop-color="#070707"
       id="stop15" />
    <stop
       offset="1"
       stop-color="#474747"
       id="stop17" />
  </linearGradient>
  <linearGradient
     id="e"
     gradientTransform="matrix(1.1827218,0,0,0.39131406,-1.307694,24.694402)"
     gradientUnits="userSpaceOnUse"
     x1="46.048"
     x2="46.048"
     y1="128.01709"
     y2="16.6203"
     xlink:href="#j">
    <stop
       offset="0"
       stop-color="#f2fdeb"
       id="stop20" />
    <stop
       offset="1"
       stop-color="#c8ffa5"
       id="stop22" />
  </linearGradient>
  <linearGradient
     id="f"
     gradientUnits="userSpaceOnUse"
     x1="67.266975"
     x2="67.266975"
     y1="144.02724"
     y2="-112.020844">
    <stop
       offset="0"
       stop-color="#5ca524"
       id="stop25" />
    <stop
       offset="1"
       stop-color="#58a11e"
       stop-opacity=".986274"
       id="stop27" />
  </linearGradient>
  <linearGradient
     id="g"
     gradientUnits="userSpaceOnUse"
     x1="79.999996"
     x2="128.000046"
     y1="56"
     y2="56">
    <stop
       offset="0"
       stop-color="#fff"
       id="stop30" />
    <stop
       offset="1"
       stop-color="#fff"
       stop-opacity="0"
       id="stop32" />
  </linearGradient>
  <mask
     id="h"
     maskUnits="userSpaceOnUse">
    <path
       d="m0 0h128.00005v112h-128.00005z"
       fill="url(#g)"
       id="path35" />
  </mask>
  <g
     mask="url(#h)"
     id="g46"
     transform="translate(0,16)">
    <path
       d="M 0,0 H 127.99999 V 88 H 0 Z"
       id="path38"
       style="fill:url(#a)"
       inkscape:connector-curvature="0" />
    <path
       d="m 0,0 v 4 20 4 28 4 20 4 2.3125 V 88 H 128 V 24 0 H 8 Z M 5,8 H 35 V 24 H 5 Z M 40,8 H 67 V 24 H 40 Z m 32,0 h 56 V 24 H 72 Z M 5,32 H 35 V 56 H 5 Z m 35,0 H 67 V 56 H 40 Z m 32,0 h 56 V 56 H 72 Z M 5,64 H 35 V 80 H 5 Z m 35,0 H 67 V 80 H 40 Z m 32,0 h 56 V 80 H 72 Z M 5,88 h 30 z m 35,0 h 27 z m 32,0 h 56 z"
       id="path40"
       style="fill:url(#b)"
       inkscape:connector-curvature="0" />
    <path
       d="M 5,32 H 128 V 55.999998 H 5 Z"
       id="path42"
       style="fill:url(#linearGradient907);fill-opacity:1"
       inkscape:connector-curvature="0" />
    <path
       d="m 0,24 v 4 28 4 4 h 5 30 5 27 5 56 V 56 H 72 V 32 h 56 V 24 H 72 67 40 35 5 Z m 5,8 H 35 V 56 H 5 Z m 35,0 H 67 V 56 H 40 Z"
       id="path44"
       style="fill:#bf5e00;fill-opacity:1"
       inkscape:connector-curvature="0" />
  </g>
</svg>
